X: 23
T: Miss Stewart of Garth's Strathspey
R: strathspey
B: William Shepherd "1st Collection" 1793 p.2 #3
F: http://imslp.org/wiki/File:PMLP73094-Shepherd_Collections_HMT.pdf
C: William Shepherd (17??-1812)
Z: 2012 John Chambers <jc:trillian.mit.edu>
M: C|
L: 1/16
K: D
F2 |\
D3dF3d A3DF3D | E2=c2G2c2 E2=C2 EFGE |\
D3dF3d A3DF3D | E3g fgag f2d2 d2 :|\
|: g2 |\
f3ddg3 fgaf d2g2 |
e3=cc3g e3c efge |\
[1 f3ddg3 fgaf d2g2 | efge fgag f2d2 d2 :|\
[2 a3fg3e f3dA3F | E3g fgag f2d2 d2 |]
